X:1
T:Title
%%score ( 1 2 ) ( 3 4 )
L:1/8
Q:1/4=110
M:3/4
K:Bb
V:1 treble nm="Grand Piano, Soprano"
V:2 treble 
V:3 bass nm="Choir Pad, Bass"
V:4 bass 
V:1
 [DF]>[DF] [DF]4 | [DB]>[Ec] [Fd]3 [Fc] | [FB]2 [Ec]2 [GB]2 | [EG]2 [DF]4 | [DF]2 [EG]3 [FA] | %5
w: By~Tullius~Clinton~O�Kane,~1880 * *|||||
 [GB]2 [FB]2 [EA]2 | [DB]2 [Fd]3 [Fc] | [=EB]2 [Fc]4 | F>[EF] [DF]3 [EG] | [CA]2 [DB]2 [EA]2 | %10
w: |||||
 [EB]2 [Fc]2 [FB]2 | [Fc]2 [Fd]4 | [Fd]2 [Ge]3 [Fd] | [Ec]2 [Dd]3 [Fc] | [FB]2 [Ec]2 [DB]2 | %15
w: |||||
 A-[EA] [DB]4 | [CA]>[DB] [Fc]2 [Fc]2 | [Fc]2 [Fc]4 | [FB]>[Fc] [Fd]2 [Fd]2 | [Fd]2 [Fd]4 | %20
w: |||||
 [Fd]2 [Ge]3 [Fd] | [Ec]2 [Dd]3 [Fc] | [FB]2 [Gc]2 [FB]2 | [EA]2 [DB]4- | [DB]4 z2 |] %25
w: |||||
V:2
 x6 | x6 | x6 | x6 | x6 | x6 | x6 | x6 | x6 | x6 | x6 | x6 | x6 | x6 | x6 | .C2 z2 z2 | x6 | x6 | %18
 x6 | x6 | x6 | x6 | x6 | x6 | x6 |] %25
V:3
 [B,,B,]>[B,,B,] [B,,B,]4 | [B,,B,]>[B,,B,] [B,,B,]3 [C,A,] | [D,B,]2 [E,G,]2 [E,B,]2 | %3
 [E,B,]2 [B,,B,]4 | [B,,B,]2 [E,B,]3 [E,B,] | [E,B,]2 [D,B,]2 [C,F,]2 | [B,,B,]2 B,3 [A,C] | %7
 [G,C]2 A,3- [E,A,] | [D,B,]>[C,A,] [B,,B,]3 [B,,B,] | [B,,B,]2 [B,,B,]2 [C,F,]2 | %10
 [D,B,]2 [F,A,]2 [F,G,]2 | [F,A,]2 B,4 | B,2 [E,B,]3 [E,B,] | [E,G,]2 [B,,F,]3 [C,A,] | %14
 [D,B,]2 [E,G,]2 F,2 | F,2 [B,,F,]4 | F,>F, [F,A,]2 [A,C]2 | [CE]2 A,3- [E,A,] | %18
 [D,B,]>[C,A,] [B,,B,]2 [D,B,]2 | [F,B,]2 B,4 | B,2 [E,B,]3 [E,B,] | [E,G,]2 [B,,F,]3 [C,A,] | %22
 [D,B,]2 [E,E]2 [F,D]2 | [F,C]2 [B,,B,]4- | [B,,B,]4 z2 |] %25
V:4
 x6 | x6 | x6 | x6 | x6 | x6 | x6 | z2 F,4 | x6 | x6 | x6 | x6 | x6 | x6 | x6 | x6 | x6 | z2 F,4 | %18
 x6 | x6 | x6 | x6 | x6 | x6 | x6 |] %25

